public/timer.svg

<svg width="71" height="73" viewBox="0 0 71 73" fill="none" xmlns="http://www.w3.org/2000/svg">
<path d="M49.9064 48.0902L37.3613 40.7095V23.9923C37.3613 22.5162 36.1701 21.3353 34.681 21.3353H34.4577C32.9686 21.3353 31.7774 22.5162 31.7774 23.9923V41.4107C31.7774 42.7023 32.4475 43.9201 33.6015 44.5844L47.1889 52.6662C48.4546 53.4043 50.0925 53.0353 50.8371 51.7806C51.6188 50.4889 51.2093 48.8283 49.9064 48.0902ZM69.6733 10.3012L58.2078 0.853909C56.6443 -0.437709 54.2991 -0.253193 52.9589 1.33365C51.656 2.88359 51.8794 5.20851 53.4429 6.53703L64.8712 15.9843C66.4347 17.2759 68.7799 17.0914 70.12 15.5045C71.4602 13.9546 71.2368 11.6297 69.6733 10.3012ZM6.09157 15.9843L17.5199 6.53703C19.1206 5.20851 19.344 2.88359 18.0038 1.33365C16.7009 -0.253193 14.3557 -0.437709 12.7922 0.853909L1.32667 10.3012C-0.236821 11.6297 -0.460176 13.9546 0.879955 15.5045C2.18286 17.0914 4.52809 17.2759 6.09157 15.9843ZM35.5 6.57393C16.9988 6.57393 1.99673 21.446 1.99673 39.787C1.99673 58.1279 16.9988 73 35.5 73C54.0012 73 69.0033 58.1279 69.0033 39.787C69.0033 21.446 54.0012 6.57393 35.5 6.57393ZM35.5 65.6193C21.1308 65.6193 9.4419 54.0317 9.4419 39.787C9.4419 25.5423 21.1308 13.9546 35.5 13.9546C49.8692 13.9546 61.5581 25.5423 61.5581 39.787C61.5581 54.0317 49.8692 65.6193 35.5 65.6193Z" fill="white"/>
</svg>

<svg width="71" height="73" viewBox="0 0 71 73" fill="none" xmlns="http://www.w3.org/2000/svg"><path d="m49.906 48.09-12.545-7.38V23.992a2.66 2.66 0 0 0-2.68-2.657h-.223a2.657 2.657 0 0 0-2.68 2.657v17.419c0 1.291.67 2.51 1.824 3.173l13.587 8.082c1.266.738 2.904.37 3.648-.885.782-1.292.372-2.953-.93-3.69m19.767-37.789L58.208.854a3.75 3.75 0 0 0-5.25.48c-1.302 1.55-1.079 3.875.485 5.203l11.428 9.447a3.75 3.75 0 0 0 5.249-.48c1.34-1.55 1.117-3.874-.447-5.203M6.092 15.984 17.52 6.537c1.6-1.328 1.824-3.653.484-5.203C16.7-.253 14.356-.438 12.792.854L1.327 10.3C-.237 11.63-.46 13.955.88 15.505c1.303 1.586 3.648 1.77 5.212.48M35.5 6.574c-18.501 0-33.503 14.872-33.503 33.213C1.997 58.127 16.999 73 35.5 73s33.503-14.872 33.503-33.213S54.001 6.574 35.5 6.574m0 59.045c-14.37 0-26.058-11.587-26.058-25.832S21.13 13.955 35.5 13.955s26.058 11.587 26.058 25.832S49.87 65.619 35.5 65.619" fill="#fff"/></svg>
